X: 1
T: Bill Harte's
M: 4/4
L: 1/8
R: reel
K: Dmix
|| DEGA BG ~G2 | BGdB AB GE | DEGA Beed | BAAB A2 GE |
DEGA BG {A}G2 | BGdB AB GE | DEGA Beed |BAAB A2 Bd ||
eA ~A2 Bdeg | dG ~G2 GABd | eA ~A2 Bdeg | dBGB A2 (3cBA |
eA (3AAA Bdeg | dG (3GGG GABd | eg g2 edea | gedB ABGE ||
%Variation measure 1 or 5:
|| JD3 A2JB G2 |
